X:086 
T:Jerry Joe & George* (polka) 
B:CRE5.095 (gan ainm)
F:file ID: cre.5/086jer_jg
N:Named for Messrs. O'Brien, Derrane, and Derrane, who recorded 
this tune in Boston in the 1950s.
M:2/4
L:1/16
Q:120
R:polka
K:G
Bc|dcdB GBdg|f2e2 e2de|cBcA FAce|e2d2 d2cB|
dcdB GBdg|f2e2 e2de|a2ag fdef|g2f2g2:|
K:D
|:Az|A2f2 fefg|f2e2 e2de|A2g2 gfga|b2a2 a2gf|
A2f2 fefg|f2e2 e2de|A2e2 egfe|d2c2d2:|


%%%

